assets/sakura/logo.svg

<svg width="64" height="64" viewBox="0 0 64 64" fill="none" xmlns="http://www.w3.org/2000/svg">
<path d="M32 64C49.6731 64 64 49.6731 64 32C64 14.3269 49.6731 0 32 0C14.3269 0 0 14.3269 0 32C0 49.6731 14.3269 64 32 64Z" fill="#F9FFF3"/>
<path d="M40.4528 31.9999C35.7736 31.9999 32 28.2263 32 23.5471C32 28.2263 28.2264 31.849 23.5472 31.9999C28.2264 31.9999 32 35.7735 32 40.4528C32 35.7735 35.7736 31.9999 40.4528 31.9999ZM32 41.0565C32 46.0377 27.9245 50.1131 22.9434 50.1131C17.9623 50.1131 13.8868 46.0377 13.8868 41.0565C13.8868 36.0754 17.9623 31.9999 22.9434 31.9999C17.9623 31.9999 13.8868 27.9245 13.8868 22.9433C13.8868 17.9622 17.9623 13.8867 22.9434 13.8867C27.9245 13.8867 32 17.9622 32 22.9433C32 17.9622 36.0755 13.8867 41.0566 13.8867C46.0377 13.8867 50.1132 17.9622 50.1132 22.9433C50.1132 27.9245 46.0377 31.9999 41.0566 31.9999C46.0377 31.9999 50.1132 36.0754 50.1132 41.0565C50.1132 46.0377 46.0377 50.1131 41.0566 50.1131C36.0755 50.1131 32 46.0377 32 41.0565Z" fill="#FF5995"/>
</svg>

<svg viewBox="0 0 64 64" fill="none" xmlns="http://www.w3.org/2000/svg">
    <path d="M32 64c17.673 0 32-14.327 32-32C64 14.327 49.673 0 32 0 14.327 0 0 14.327 0 32c0 17.673 14.327 32 32 32Z" fill="#F9FFF3"/>
    <path d="M40.453 32A8.439 8.439 0 0 1 32 23.547c0 4.68-3.774 8.302-8.453 8.453A8.439 8.439 0 0 1 32 40.453 8.439 8.439 0 0 1 40.453 32ZM32 41.056c0 4.982-4.076 9.057-9.057 9.057-4.98 0-9.056-4.075-9.056-9.056 0-4.982 4.075-9.057 9.056-9.057-4.98 0-9.056-4.076-9.056-9.057 0-4.98 4.075-9.056 9.056-9.056 4.981 0 9.057 4.075 9.057 9.056 0-4.98 4.075-9.056 9.057-9.056 4.98 0 9.056 4.075 9.056 9.056 0 4.981-4.075 9.057-9.056 9.057 4.98 0 9.056 4.075 9.056 9.056 0 4.982-4.075 9.057-9.056 9.057-4.982 0-9.057-4.075-9.057-9.056Z" fill="#FF5995"/>
</svg>
